X: 01011
T: BROTHERS THREE
C: Bob McQuillen Oct 75
B: Bob's Note Book 1 #11
%R: reel, polka
Z: 2019 John Chambers <jc:trillian.mit.edu>
M: C
L: 1/8
K: G
DE \
| G2GB AGED | G2G2 E2D2 | G2GB dBGB | AGAB AcBA |
| G2GB AGED | G2G2 E2D2 | G2GB dBGB | AGAB G2 :|
|: GA \
| B2Bd cBAG | BGBd cBAG | B2dd g2d2 | e2d2 d4 |
| B2Bd cBAG | BGBd cBAG | B2dd dedc | BGAF G2 :|
|: Bc \
| d2dg e2c2 | d2dg e4 | d2B2 B2G2 | AGAB A2Bc |
| d2dg e2c2 | d2dg e4 | d2dg e2dc | B2A2 G2 :|
%%begintext align
%% For Larry, Joe and Raphy Haddock
%%endtext

%%sep 1 1 500

%%sep 1 1 500

